X:2739
T:Castle O'Trim, The
S:Andy H
R:Other
O:England
N:Dec '96
M:4/4
C:Andy Hornby
A:Lancaster
K:G
d2e(c c2)d2| B2c(A A2)c2| BAG(A A)GFE| D3(D D4)|\
d2e(c c2)d2| B2c(A A2)c2| BAG(A A2)F2| G3(G G4):|
|:B2G(c c2)A2|BAG(A A2)F2|D3(D D4)|\
  B2G(c c2)A2|BAG(A A2)F2|G3(G G4):|
|:g2d(e e)cdB|c2A(B B)GAF|D3(D D4)|\
g2d(e e)cdB|c2A(B B)GAF|G3(G G4):|
W:Copyright Andy Hornby


